resources/svg/artboard-2-line.svg

<svg xmlns="http://www.w3.org/2000/svg" viewBox="0 0 24 24" fill="currentColor">
    <g>
        <path fill="none" d="M0 0h24v24H0z"/>
        <path d="M8 8v8h8V8H8zM6 6h12v12H6V6zm0-4h2v3H6V2zm0 17h2v3H6v-3zM2 6h3v2H2V6zm0 10h3v2H2v-2zM19 6h3v2h-3V6zm0 10h3v2h-3v-2zM16 2h2v3h-2V2zm0 17h2v3h-2v-3z"/>
    </g>
</svg>

<svg fill="currentColor" viewBox="0 0 24 24" xmlns="http://www.w3.org/2000/svg"><path d="M8 8V16H16V8H8ZM6 6H18V18H6V6ZM6 2H8V5H6V2ZM6 19H8V22H6V19ZM2 6H5V8H2V6ZM2 16H5V18H2V16ZM19 6H22V8H19V6ZM19 16H22V18H19V16ZM16 2H18V5H16V2ZM16 19H18V22H16V19Z"/></svg>
